X: 522
T: Zai liushu
%%abc-version 2.0
%%abcx-abcm2ps-target-version 5.9.1 (29 Sep 2008)
%%abc-creator hum2abc beta
%%abcx-conversion-date 2013/10/02 07:52:30
%%abc-edited-by Helmut Schaffrath
%%humdrum-veritas 1203668829
%%humdrum-veritas-data 4251214640
%%continueall 1
%%barnumbers 0
L: 1/8
M: 2/4
K: G
A2A2 [I:setbarnb 1]| 
B2e2 | 
e d B d | 
A4 | 
A A/ G/ E G | 
A2d B | 
A4 | 
gg3 | 
e g e d | 
d2E G | 
A2z2 | 
d d/ d/ F z | 
e> g e d | 
d EG2 | 
A A/ A/ G E | 
D4 |]  



